X: 10
T:Liverpool Hornpipe,The. WI.010
M:C|
L:1/8
Q:180
S:Wm Irwin, 1838 MS, AGG's Transcription
R:Hornipe
O:England
A:Lake District
Z:vmp.Chris Partington.2005
K:D
A2|FDFA dfaf|gefd dcBA|G2BG F2AF|EFGA GFED|!
FDFA dfaf|gefd dcBA|afdf gece|d2d2 d2|!
|A2|d2fd c2ec|Bcde dcBA|G2BG F2AF|EFGA GFED|!
FDFA dfaf|gefd dcBA|afdf gece|d2d2 d2|]
